src/static/siae.svg

<svg width="83" height="44" viewBox="0 0 83 44" fill="none" xmlns="http://www.w3.org/2000/svg">
<g clip-path="url(#clip0)">
<path d="M19.4716 0.129252H16.2525C16.1729 0.127362 16.0937 0.141653 16.0198 0.171266C15.9458 0.200881 15.8786 0.245202 15.8223 0.301526C15.7662 0.357851 15.7218 0.42501 15.6924 0.498924C15.6629 0.572839 15.6487 0.65196 15.6508 0.731497V43.2712C15.6487 43.3507 15.6629 43.4299 15.6924 43.5038C15.7218 43.5777 15.7662 43.6448 15.8223 43.7012C15.8786 43.7576 15.9458 43.8019 16.0198 43.8314C16.0937 43.8611 16.1729 43.8754 16.2525 43.8735H19.4716C19.5513 43.8754 19.6305 43.8611 19.7044 43.8314C19.7784 43.8019 19.8456 43.7576 19.9019 43.7012C19.958 43.6448 20.0024 43.5777 20.0318 43.5038C20.0613 43.4299 20.0755 43.3507 20.0733 43.2712V0.731497C20.0755 0.65196 20.0613 0.572839 20.0318 0.498924C20.0024 0.42501 19.958 0.357851 19.9019 0.301526C19.8456 0.245202 19.7784 0.200881 19.7044 0.171266C19.6305 0.141653 19.5513 0.127362 19.4716 0.129252ZM49.8123 0.129252H39.4266C39.347 0.127362 39.2678 0.141653 39.1939 0.171266C39.12 0.200881 39.0528 0.245202 38.9964 0.301526C38.9403 0.357851 38.8959 0.42501 38.8665 0.498924C38.837 0.572839 38.8228 0.65196 38.8249 0.731497V43.2712C38.8228 43.3507 38.837 43.4299 38.8665 43.5038C38.8959 43.5777 38.9403 43.6448 38.9964 43.7012C39.0528 43.7576 39.12 43.8019 39.1939 43.8314C39.2678 43.8611 39.347 43.8754 39.4266 43.8735H49.5961C49.6759 43.8754 49.755 43.8611 49.829 43.8314C49.9029 43.8019 49.9701 43.7576 50.0264 43.7012C50.0826 43.6448 50.1269 43.5777 50.1564 43.5038C50.1859 43.4299 50.2 43.3507 50.1978 43.2712V40.2627C50.2 40.1833 50.1859 40.1041 50.1564 40.0302C50.1269 39.9563 50.0826 39.8892 50.0264 39.8328C49.9701 39.7764 49.9029 39.7321 49.829 39.7026C49.755 39.6729 49.6759 39.6586 49.5961 39.6605H43.2446V23.6335H48.3928C48.5372 23.6243 48.6732 23.5621 48.7748 23.4593C48.8763 23.3563 48.9365 23.2196 48.9435 23.0752V20.9261C48.9459 20.8465 48.9317 20.7672 48.9021 20.6932C48.8725 20.6191 48.828 20.552 48.7714 20.4958C48.7224 20.4424 48.6628 20.3996 48.5965 20.3701C48.5302 20.3405 48.4586 20.3248 48.3859 20.3239H43.2364V4.3395H49.8109C49.8617 4.34114 49.9124 4.33247 49.9596 4.31404C50.007 4.29561 50.0501 4.26778 50.0863 4.23225C50.1194 4.20219 50.1459 4.1657 50.1645 4.12504C50.183 4.08438 50.1929 4.04038 50.1937 3.99575V0.515625C50.1966 0.464277 50.1885 0.412923 50.17 0.364888C50.1517 0.316852 50.1235 0.273206 50.0871 0.236779C50.0508 0.200354 50.0071 0.171956 49.9591 0.153434C49.911 0.134909 49.8597 0.126675 49.8082 0.129252H49.8123ZM35.5218 43.2699V6.05825C35.501 4.7629 35.0644 3.50845 34.2761 2.4795C33.488 1.45053 32.3898 0.701416 31.1433 0.342376H31.1006C30.8434 0.256215 30.5774 0.198576 30.3076 0.170501C30.0153 0.141083 29.7216 0.126858 29.4277 0.127878C29.1414 0.127878 28.8555 0.142084 28.57 0.170501C28.2928 0.19724 28.0193 0.254891 27.7548 0.342376H27.7975L27.6681 0.384999L27.5814 0.427621L27.3225 0.514251C27.2626 0.514706 27.2037 0.52931 27.1504 0.556874L26.3766 0.943246C25.4724 1.47635 24.719 2.23063 24.1874 3.135C23.642 4.05867 23.36 5.11385 23.3723 6.18613V43.2685C23.3701 43.3481 23.3842 43.4274 23.4138 43.5014C23.4435 43.5754 23.4879 43.6426 23.5444 43.6989C23.5935 43.7522 23.6531 43.795 23.7194 43.8246C23.7857 43.8541 23.8573 43.8698 23.9299 43.8708H27.189C27.2687 43.8727 27.3478 43.8584 27.4218 43.8287C27.4957 43.7991 27.5629 43.7548 27.6192 43.6985C27.6754 43.6421 27.7197 43.575 27.7492 43.501C27.7787 43.4272 27.7928 43.348 27.7906 43.2685V23.6321H31.0951V43.2685C31.0931 43.348 31.1073 43.4272 31.1367 43.501C31.1662 43.575 31.2105 43.6421 31.2667 43.6985C31.323 43.7548 31.3902 43.7991 31.4641 43.8287C31.5381 43.8584 31.6172 43.8727 31.6968 43.8708H34.916C34.9957 43.8727 35.0748 43.8584 35.1488 43.8287C35.2227 43.7991 35.2899 43.7548 35.3462 43.6985C35.4024 43.6421 35.4467 43.575 35.4762 43.501C35.5057 43.4272 35.5198 43.348 35.5176 43.2685L35.5218 43.2699ZM31.102 8.12075V20.3239H27.7975V5.97162C27.8521 5.57628 28.0418 5.21191 28.3345 4.94037C28.4796 4.80018 28.6511 4.68997 28.8389 4.61612C29.0267 4.54226 29.2273 4.50619 29.4291 4.51C29.873 4.51326 30.2977 4.69125 30.6109 5.00533C30.9241 5.31942 31.1006 5.74423 31.102 6.1875V8.1235V8.12075ZM12.3491 28.875V28.3594C12.3271 27.1737 12.1171 25.9992 11.7268 24.8792C11.3808 23.7548 10.8514 22.6952 10.1599 21.7429L5.95354 16.071C5.5503 15.492 5.23913 14.8543 5.03103 14.1804C4.78406 13.5193 4.64461 12.823 4.61798 12.1179V6.1875C4.61035 5.76337 4.7666 5.3526 5.05427 5.04048C5.34194 4.72836 5.73893 4.53887 6.16283 4.51137H6.26057C6.47886 4.50795 6.69565 4.54802 6.89826 4.62923C7.10086 4.71045 7.28523 4.83119 7.44055 4.98438C7.5997 5.13241 7.72584 5.31226 7.81076 5.51221C7.89569 5.71216 7.9375 5.92772 7.93347 6.14487V9.06675C7.93141 9.14629 7.94553 9.22541 7.97502 9.29933C8.0045 9.37324 8.04873 9.44039 8.105 9.49673C8.16127 9.55305 8.22842 9.59736 8.30238 9.62698C8.37631 9.6566 8.45552 9.67088 8.53518 9.669H11.7543C11.8339 9.67088 11.9132 9.6566 11.9871 9.62698C12.061 9.59736 12.1282 9.55305 12.1845 9.49673C12.2407 9.44039 12.285 9.37324 12.3144 9.29933C12.3439 9.22541 12.3581 9.14629 12.356 9.06675V6.14487C12.3423 5.35595 12.1723 4.57755 11.8556 3.85466C11.5389 3.13177 11.0819 2.47871 10.511 1.93325C9.3764 0.830918 7.85591 0.214151 6.27298 0.214151C4.69003 0.214151 3.16954 0.830918 2.03496 1.93325C1.45733 2.47279 0.996662 3.12492 0.681448 3.84933C0.366234 4.57374 0.203174 5.35503 0.202348 6.14487V12.1179C0.224319 13.3035 0.434374 14.4781 0.824694 15.598C1.17067 16.7225 1.70007 17.782 2.39157 18.7344L6.59792 24.4062C7.00989 24.9721 7.32189 25.604 7.52042 26.2749C7.76339 26.9295 7.90275 27.618 7.93347 28.3154V37.7685C7.93131 38.2113 7.7545 38.6354 7.44135 38.9489C7.12821 39.2624 6.70397 39.44 6.26057 39.4433C6.17383 39.4433 6.08724 39.4358 6.00172 39.4213C5.91395 39.4063 5.82741 39.3847 5.74288 39.3566C5.41213 39.251 5.12558 39.0394 4.92776 38.7544C4.7309 38.4783 4.62591 38.1473 4.62762 37.8084V34.8865C4.62968 34.807 4.61556 34.7278 4.58606 34.654C4.55658 34.58 4.51236 34.5129 4.45609 34.4565C4.39981 34.4002 4.33266 34.3559 4.25871 34.3263C4.18477 34.2966 4.10556 34.2823 4.02592 34.2843H0.804041C0.724391 34.2823 0.645188 34.2966 0.571241 34.3263C0.497293 34.3559 0.430146 34.4002 0.373873 34.4565C0.317602 34.5129 0.27338 34.58 0.243894 34.654C0.214408 34.7278 0.200273 34.807 0.202348 34.8865V38.324C0.230803 38.4963 0.259717 38.654 0.28909 38.797V38.8396C0.316253 39.0059 0.352102 39.1707 0.396488 39.3333C0.43963 39.49 0.475427 39.6403 0.503883 39.7843H0.546566C0.576294 39.9314 0.619621 40.0755 0.675992 40.2146L0.718675 40.2572C0.804958 40.4002 0.883901 40.5437 0.955498 40.6876C1.02217 40.8235 1.10146 40.9529 1.19232 41.074V41.1166L1.45117 41.4604L1.53791 41.5896C1.62419 41.7042 1.71048 41.8114 1.79677 41.9114C1.88675 42.0134 1.98737 42.1057 2.09692 42.1864C2.64622 42.7061 3.28595 43.1212 3.98461 43.4115C4.70467 43.7132 5.47833 43.8666 6.25921 43.8625C6.54636 43.8624 6.83309 43.8408 7.11699 43.7979C7.40718 43.7537 7.69384 43.689 7.97479 43.604L7.93211 43.6466C8.17339 43.5681 8.41012 43.4764 8.64118 43.3716C8.85597 43.2717 9.06343 43.1644 9.26353 43.0499V43.0925C9.40672 43.0063 9.54442 42.9202 9.6766 42.834C9.80787 42.7459 9.93008 42.6451 10.0415 42.5329C10.1627 42.4406 10.2772 42.34 10.3843 42.2318L10.427 42.1891C10.5407 42.1033 10.6418 42.002 10.7271 41.888C10.8125 41.774 10.9136 41.6727 11.0273 41.5869L11.07 41.5002C11.1002 41.4396 11.1362 41.3821 11.1774 41.3284C11.2237 41.2679 11.2738 41.2105 11.3275 41.1565V41.1125C11.4095 41.0047 11.4814 40.8897 11.5423 40.7687L11.5849 40.7261C11.6428 40.5831 11.7001 40.4543 11.7571 40.3397L11.7997 40.2531C11.8282 40.1954 11.8571 40.1308 11.8865 40.0593C11.9158 39.9878 11.9448 39.9231 11.9732 39.8654V39.8227C12.0029 39.7611 12.0247 39.696 12.0379 39.6289C12.0512 39.5618 12.0729 39.4966 12.1026 39.435V39.3484C12.1324 39.2868 12.1541 39.2216 12.1674 39.1545C12.1844 39.0745 12.206 38.9956 12.2321 38.918V38.8754C12.2587 38.7993 12.2731 38.7194 12.2747 38.6389C12.2764 38.5583 12.2908 38.4784 12.3174 38.4024V28.8626H12.3601L12.3491 28.875ZM60.154 0.0426225C60.4351 0.0195812 60.7178 0.0597435 60.9814 0.160157C61.2449 0.260571 61.4825 0.41869 61.6768 0.622879C62.0296 1.0835 62.2046 1.65553 62.1697 2.23438V6.74575C62.198 7.31701 62.0234 7.87986 61.6768 8.33525C61.486 8.54518 61.2496 8.70865 60.9855 8.81305C60.7215 8.91745 60.4371 8.96004 60.154 8.9375H58.0515V0.0426225H60.154ZM60.154 8.0355C60.2993 8.04603 60.4449 8.02242 60.5793 7.96654C60.7137 7.91066 60.8331 7.82408 60.9278 7.71375C61.1196 7.43089 61.2107 7.09197 61.1866 6.75125V2.19175C61.2083 1.86332 61.1168 1.53736 60.9278 1.26775C60.8262 1.15481 60.6996 1.06697 60.5582 1.01114C60.4167 0.95531 60.2643 0.933017 60.1127 0.946006H59.0401V8.0355H60.1554H60.154ZM64.403 7.1335L64.0588 8.9375H63.1583L64.8326 0.0426225H66.2921L67.9664 8.9375H66.9805L66.6377 7.13212H64.4016L64.403 7.1335ZM64.5324 6.27413H66.5069L65.477 1.1605L64.5324 6.27413ZM69.0761 8.9375V0.0426225H70.0633V8.0355H72.5954V8.9375H69.0761ZM73.668 8.9375V0.0426225H74.6552V8.0355H77.1873V8.9375H73.668ZM79.2471 7.1335L78.9084 8.9375H78.0079L79.6822 0.0426225H81.1416L82.8145 8.9375H81.8273L81.4845 7.13212H79.2512L79.2471 7.1335ZM79.3751 6.27413H81.3495L80.3623 1.1605L79.3751 6.27413ZM59.9819 11.6875C60.2666 11.6605 60.5538 11.6987 60.8215 11.7992C61.0893 11.8998 61.3305 12.06 61.5267 12.2677C61.8626 12.7198 62.0296 13.2747 61.999 13.8366V14.9105C62.0437 15.494 61.859 16.0721 61.484 16.522C61.2777 16.7131 61.0338 16.8594 60.7679 16.952C60.5021 17.0445 60.2199 17.0811 59.9392 17.0596H59.0387V20.5838H58.0515V11.6875H59.9791H59.9819ZM59.9392 16.1989C60.0868 16.2124 60.2356 16.1949 60.3759 16.1476C60.5164 16.1002 60.6453 16.024 60.7543 15.9239C60.9516 15.6582 61.0437 15.3292 61.0132 14.9999V13.7968C61.0363 13.4782 60.9531 13.161 60.7763 12.8948C60.6764 12.7869 60.5529 12.7036 60.4152 12.6513C60.2776 12.5991 60.1298 12.5793 59.9833 12.5936H59.0387V16.203L59.9392 16.1989ZM63.9321 18.777L63.5893 20.5824H62.6448L64.3645 11.6875H65.8239L67.4982 20.5824H66.511L66.1682 18.777H63.9321ZM64.0616 17.9176H66.036L65.0061 12.804L64.0616 17.9176ZM70.5824 11.6875C70.855 11.6632 71.1297 11.6965 71.3886 11.7854C71.6474 11.8742 71.8847 12.0166 72.0846 12.2031C72.4267 12.627 72.5954 13.1644 72.5568 13.7074V14.4375C72.5743 14.8559 72.4793 15.2713 72.2815 15.6406C72.0967 15.9552 71.7972 16.1862 71.4457 16.2855C71.6277 16.3296 71.7983 16.4117 71.9461 16.5264C72.0939 16.6411 72.2158 16.7859 72.3035 16.951C72.4836 17.3183 72.5724 17.7233 72.5624 18.1321V19.7216C72.5632 19.8729 72.5775 20.0238 72.605 20.1726C72.6326 20.327 72.6761 20.4781 72.7345 20.6236L71.7472 20.581C71.6845 20.4505 71.6408 20.3115 71.6178 20.1685C71.5903 20.0197 71.576 19.8688 71.5751 19.7175V18.0881C71.5969 17.905 71.5775 17.7193 71.5181 17.5447C71.4588 17.3701 71.3612 17.211 71.2323 17.0789C70.959 16.8805 70.6251 16.7832 70.2878 16.8039H69.5993V20.5851H68.6121V11.6875H70.5852H70.5824ZM70.3249 15.8991C70.6455 15.9142 70.962 15.8234 71.2254 15.6406C71.355 15.5133 71.4533 15.3579 71.5128 15.1863C71.5722 15.0149 71.5912 14.832 71.5683 14.652V13.7926C71.5852 13.4812 71.5023 13.1724 71.3314 12.9113C71.2356 12.7971 71.1132 12.708 70.975 12.652C70.8367 12.5959 70.6869 12.5744 70.5383 12.5895H69.5966V15.8551H70.3263V15.8978L70.3249 15.8991ZM75.1743 20.5824V12.5895H73.5427V11.6875H77.7917V12.5895H76.1601V20.5824H75.1743ZM81.954 15.6406V16.5H79.7648V19.6804H82.4263V20.5824H78.7789V11.6875H82.4263V12.5895H79.7648V15.6406H81.954ZM60.154 23.3324C60.4371 23.3094 60.7217 23.3518 60.9858 23.4563C61.2498 23.5606 61.4863 23.7244 61.6768 23.9346C62.0232 24.3902 62.1977 24.9529 62.1697 25.5241V30.0355C62.2046 30.6144 62.0296 31.1864 61.6768 31.647C61.4825 31.8512 61.2449 32.0093 60.9814 32.1097C60.7178 32.2102 60.4351 32.2503 60.154 32.2272H58.0515V23.3324H60.154ZM60.154 31.3239C60.2993 31.3345 60.4449 31.3108 60.5793 31.2549C60.7137 31.199 60.8331 31.1124 60.9278 31.0021C61.1168 30.7325 61.2083 30.4066 61.1866 30.0781V25.4801C61.2083 25.1516 61.1168 24.8258 60.9278 24.5561C60.8262 24.4432 60.6996 24.3554 60.5582 24.2995C60.4167 24.2437 60.2643 24.2215 60.1127 24.2344H59.0401V31.3239H60.1554H60.154ZM64.403 23.3324V32.2272H63.4144V23.3324H64.403ZM71.9138 25.4801V26.2542H70.9734V25.4375C70.9918 25.1056 70.9093 24.7759 70.7366 24.4915C70.635 24.383 70.5121 24.2967 70.3755 24.2375C70.2389 24.1784 70.0917 24.1479 69.9429 24.1479C69.7942 24.1479 69.6468 24.1784 69.5104 24.2375C69.3738 24.2967 69.2508 24.383 69.1491 24.4915C68.9766 24.7759 68.8941 25.1056 68.9123 25.4375V30.1208C68.8941 30.4527 68.9766 30.7824 69.1491 31.0667C69.2508 31.1752 69.3738 31.2616 69.5104 31.3207C69.6468 31.3798 69.7942 31.4104 69.9429 31.4104C70.0917 31.4104 70.2389 31.3798 70.3755 31.3207C70.5121 31.2616 70.635 31.1752 70.7366 31.0667C70.9093 30.7824 70.9918 30.4527 70.9734 30.1208V28.9603H71.918V30.0781C71.9499 30.6603 71.7835 31.236 71.4457 31.7116C71.2604 31.9228 71.0277 32.0874 70.7668 32.192C70.5057 32.2967 70.2237 32.3383 69.9435 32.3139C69.6605 32.3368 69.376 32.2945 69.1119 32.19C68.8478 32.0856 68.6114 31.9219 68.4207 31.7116C68.0702 31.2415 67.8957 30.6635 67.9278 30.0781V25.4801C67.9022 24.9024 68.0762 24.3334 68.4207 23.8686C68.608 23.6529 68.8433 23.484 69.1078 23.3758C69.3723 23.2676 69.6587 23.2231 69.9435 23.2458C70.2219 23.2258 70.5012 23.2719 70.7584 23.3801C71.0156 23.4883 71.2436 23.6558 71.4237 23.8686C71.7683 24.3334 71.9423 24.9024 71.9166 25.4801H71.9138ZM74.1458 28.2301V32.2259H73.1585V23.331H74.1402V27.3268H76.3295V23.331H77.3167V32.2259H76.3295V28.2301H74.1458ZM79.6381 23.3324V32.2272H78.6509V23.3324H79.6381ZM61.999 37.125V37.9417H61.06V37.0824C61.0788 36.7473 60.988 36.4152 60.8011 36.1364C60.7032 36.0176 60.5779 35.9242 60.436 35.8643C60.294 35.8044 60.1397 35.7798 59.986 35.7926C59.8355 35.7781 59.6838 35.802 59.545 35.8622C59.4064 35.9223 59.2852 36.0166 59.1929 36.1364C59.0204 36.4207 58.9379 36.7504 58.9561 37.0824V41.7656C58.9374 42.1007 59.0281 42.4328 59.215 42.7116C59.3061 42.8277 59.4243 42.9197 59.5592 42.9795C59.694 43.0394 59.8416 43.0655 59.9888 43.0554C60.1424 43.0682 60.2968 43.0436 60.4387 42.9837C60.5807 42.9238 60.706 42.8304 60.8039 42.7116C60.9907 42.4328 61.0816 42.1007 61.0627 41.7656V40.6051H62.0073V41.723C62.0395 42.3083 61.865 42.8864 61.5143 43.3565C61.1018 43.7431 60.5574 43.9585 59.9915 43.9585C59.4258 43.9585 58.8812 43.7431 58.4687 43.3565C58.1182 42.8864 57.9437 42.3083 57.9758 41.723V37.125C57.9502 36.5472 58.1242 35.9782 58.4687 35.5135C58.8749 35.1145 59.4218 34.8908 59.9915 34.8908C60.5613 34.8908 61.1083 35.1145 61.5143 35.5135C61.8565 35.9792 62.028 36.548 62.0004 37.125H61.999ZM65.1754 34.9772C65.4481 34.9529 65.7227 34.9863 65.9816 35.0751C66.2405 35.164 66.4777 35.3063 66.6776 35.4929C67.0238 35.9311 67.1924 36.4833 67.1499 37.0397V37.7272C67.1656 38.1436 67.0765 38.5572 66.891 38.9304C66.8001 39.091 66.6769 39.2311 66.5295 39.3421C66.3819 39.4529 66.2129 39.5323 66.0332 39.5752C66.2206 39.6129 66.397 39.6924 66.5493 39.8076C66.7017 39.9229 66.826 40.0709 66.9131 40.2408C67.0795 40.6119 67.1605 41.0154 67.1499 41.4219V43.0114C67.1514 43.1639 67.1731 43.3155 67.2146 43.4624C67.2563 43.6154 67.3064 43.766 67.3647 43.9134L66.3348 43.8708C66.272 43.7403 66.2283 43.6013 66.2053 43.4583C66.1778 43.3095 66.1635 43.1585 66.1627 43.0072V41.4177C66.1855 41.2295 66.1689 41.0387 66.1135 40.8573C66.0583 40.6759 65.9658 40.5082 65.8418 40.3645C65.5641 40.1603 65.222 40.0627 64.878 40.0895H64.1896V43.8708H63.2024V34.9759H65.1754V34.9772ZM64.9152 39.1875C65.2433 39.2089 65.5688 39.1178 65.8377 38.929C65.9583 38.8051 66.0496 38.6558 66.1051 38.4922C66.1607 38.3285 66.1789 38.1546 66.1585 37.983V37.125C66.1792 36.7998 66.0963 36.4764 65.9217 36.201C65.8257 36.0871 65.7032 35.9983 65.5651 35.9422C65.4269 35.8861 65.2771 35.8645 65.1286 35.8792H64.1841V39.1875H64.9152ZM71.6522 38.9304V39.8324H69.5085V42.9688H72.1699V43.8708H68.5226V34.9759H72.1699V35.8779H69.5085V38.929H71.655L71.6522 38.9304ZM74.3991 42.0667L74.0563 43.8721H73.1558L74.8301 34.9772H76.2895L77.9638 43.8721H76.9766L76.6338 42.0667H74.4005H74.3991ZM74.5285 41.25H76.503L75.5157 36.0938L74.5285 41.25ZM54.2748 0H54.7043V44H54.2748V0Z" fill="black"/>
</g>
<defs>
<clipPath id="clip0">
<path d="M0.202148 0H82.8144V44H0.202148V0Z" fill="white"/>
</clipPath>
</defs>
</svg>

<svg xmlns="http://www.w3.org/2000/svg" viewBox="0 0 83 44">
    <path d="M19.472.13h-3.22a.588.588 0 00-.601.601v42.54a.586.586 0 00.602.602h3.219a.587.587 0 00.601-.602V.731a.584.584 0 00-.369-.56.588.588 0 00-.232-.042zm30.34 0H39.427a.588.588 0 00-.602.601v42.54a.586.586 0 00.602.602h10.17a.587.587 0 00.6-.602v-3.008a.584.584 0 00-.368-.56.587.587 0 00-.233-.043h-6.351V23.634h5.148a.59.59 0 00.55-.559v-2.149a.58.58 0 00-.172-.43.53.53 0 00-.385-.172h-5.15V4.339h6.575a.376.376 0 00.353-.214.326.326 0 00.03-.13V.516a.362.362 0 00-.107-.278.368.368 0 00-.279-.108h.004zm-14.29 43.14V6.058a6.044 6.044 0 00-1.246-3.579A6.058 6.058 0 0031.143.342h-.042a3.704 3.704 0 00-.793-.171 8.654 8.654 0 00-1.738 0 3.74 3.74 0 00-.815.171h.043l-.13.043-.087.043-.258.086a.38.38 0 00-.173.043l-.773.386a6.18 6.18 0 00-2.19 2.192 5.868 5.868 0 00-.815 3.051V43.27a.584.584 0 00.172.43.534.534 0 00.386.172h3.259a.587.587 0 00.602-.602V23.632h3.304V43.27a.589.589 0 00.602.602h3.219a.587.587 0 00.602-.602h.004zm-4.42-35.15v12.204h-3.305V5.972a1.73 1.73 0 01.537-1.032 1.534 1.534 0 011.095-.43 1.686 1.686 0 011.673 1.678v1.936-.003zM12.349 28.876v-.516a11.207 11.207 0 00-.622-3.48 10.687 10.687 0 00-1.567-3.136L5.954 16.07a6.839 6.839 0 01-.923-1.89 6.606 6.606 0 01-.413-2.063v-5.93A1.649 1.649 0 016.163 4.51h.098a1.645 1.645 0 011.18.473 1.547 1.547 0 01.492 1.16v2.923a.587.587 0 00.602.602h3.22a.589.589 0 00.601-.602V6.145a5.965 5.965 0 00-1.845-4.212 6.082 6.082 0 00-8.476 0A5.775 5.775 0 00.202 6.145v5.973c.022 1.185.232 2.36.623 3.48a10.687 10.687 0 001.567 3.136l4.206 5.672a6.13 6.13 0 01.922 1.869c.243.655.383 1.343.413 2.04v9.454a1.682 1.682 0 01-1.931 1.652 1.76 1.76 0 01-.26-.064 1.575 1.575 0 01-.814-.603 1.616 1.616 0 01-.3-.946v-2.922a.586.586 0 00-.602-.602H.804a.585.585 0 00-.602.602v3.438c.029.172.058.33.087.473v.043c.027.166.063.33.107.493.044.157.08.307.108.451h.043c.03.147.073.291.129.43l.043.043c.086.143.165.287.236.43.067.137.146.266.237.387v.043l.26.343.086.13c.086.114.172.221.259.321.09.102.19.195.3.275.55.52 1.189.935 1.888 1.225.72.302 1.493.456 2.274.451.287 0 .574-.021.858-.064a6.17 6.17 0 00.858-.194l-.043.043a6.838 6.838 0 001.332-.597v.043c.143-.087.28-.173.413-.259.13-.088.253-.189.364-.301a3.27 3.27 0 00.343-.301l.043-.043c.114-.086.215-.187.3-.301.085-.114.187-.215.3-.301l.043-.087c.03-.06.066-.118.107-.172.047-.06.097-.117.15-.172v-.044c.082-.107.154-.222.215-.343l.043-.043c.058-.143.115-.272.172-.386l.043-.087c.028-.058.057-.122.086-.194a3.12 3.12 0 01.087-.194v-.042a.803.803 0 00.065-.194.808.808 0 01.065-.194v-.087a.804.804 0 00.064-.194c.017-.08.039-.158.065-.236v-.043a.763.763 0 00.043-.236.765.765 0 01.042-.237v-9.54h.043l-.01.013zM60.154.043a1.89 1.89 0 011.523.58c.353.46.528 1.033.493 1.611v4.512a2.426 2.426 0 01-.493 1.59 1.856 1.856 0 01-1.523.601h-2.103V.043h2.103zm0 7.993a.932.932 0 00.774-.322c.192-.283.283-.622.259-.963v-4.56a1.444 1.444 0 00-.26-.923.983.983 0 00-.814-.322H59.04v7.09h1.115-.001zm4.249-.902l-.344 1.803h-.9L64.832.043h1.46l1.673 8.895h-.985l-.343-1.806h-2.236l.001.002zm.13-.86h1.974l-1.03-5.114-.945 5.114zm4.543 2.663V.043h.987v7.993h2.532v.902h-3.519zm4.592 0V.043h.987v7.993h2.532v.902h-3.519zm5.58-1.803l-.34 1.803h-.9L79.682.043h1.46l1.672 8.895h-.987l-.343-1.806h-2.233l-.004.002zm.127-.86h1.975l-.988-5.114-.987 5.114zm-19.393 5.413a1.883 1.883 0 011.545.58 2.41 2.41 0 01.472 1.57v1.074a2.249 2.249 0 01-.515 1.611 2.042 2.042 0 01-1.545.538h-.9v3.524h-.988v-8.896H59.982zm-.043 4.512a1.064 1.064 0 00.815-.275c.198-.266.29-.595.26-.924v-1.203a1.442 1.442 0 00-.238-.902.953.953 0 00-.793-.301h-.944v3.609l.9-.004zm3.993 2.578l-.343 1.805h-.944l1.72-8.895h1.459l1.674 8.895h-.987l-.343-1.805h-2.236zm.13-.86h1.974l-1.03-5.113-.944 5.114zm6.52-6.23a1.95 1.95 0 011.503.516c.342.424.51.961.472 1.504v.73a2.34 2.34 0 01-.276 1.204 1.415 1.415 0 01-.835.644 1.325 1.325 0 01.858.666c.18.367.268.772.258 1.181v1.59a2.556 2.556 0 00.172.902l-.987-.043a1.505 1.505 0 01-.13-.412 2.565 2.565 0 01-.042-.451v-1.63a1.234 1.234 0 00-.343-1.01 1.456 1.456 0 00-.944-.274h-.689v3.781h-.987v-8.898h1.973-.003zm-.257 4.212c.32.015.637-.076.9-.258a1.177 1.177 0 00.343-.989v-.86a1.464 1.464 0 00-.237-.88.913.913 0 00-.793-.323h-.941v3.266h.73v.043l-.002.001zm4.85 4.683V12.59h-1.632v-.902h4.249v.902H76.16v7.993h-.986zm6.779-4.941v.859h-2.19v3.18h2.662v.902H78.78v-8.895h3.647v.902h-2.661v3.052h2.189zm-21.8 7.691a1.853 1.853 0 011.523.603 2.43 2.43 0 01.493 1.59v4.51c.035.58-.14 1.151-.493 1.612a1.888 1.888 0 01-1.523.58h-2.103v-8.895h2.103zm0 7.992a.93.93 0 00.774-.322c.189-.27.28-.595.259-.924V25.48a1.444 1.444 0 00-.26-.924.984.984 0 00-.814-.322H59.04v7.09h1.115-.001zm4.249-7.992v8.895h-.989v-8.895h.989zm7.51 2.148v.774h-.94v-.817a1.647 1.647 0 00-.236-.946 1.086 1.086 0 00-1.588 0 1.65 1.65 0 00-.237.947v4.683a1.65 1.65 0 00.237.946 1.086 1.086 0 001.588 0c.172-.285.255-.614.236-.946v-1.16h.945v1.117a2.577 2.577 0 01-.472 1.634 1.789 1.789 0 01-1.502.602 1.854 1.854 0 01-1.523-.602 2.503 2.503 0 01-.493-1.634V25.48a2.519 2.519 0 01.493-1.611 1.826 1.826 0 011.522-.623 1.774 1.774 0 011.48.623c.345.464.52 1.033.494 1.611h-.003zm2.233 2.75v3.996h-.987V23.33h.981v3.996h2.19V23.33h.987v8.895h-.987V28.23h-2.184zm5.492-4.898v8.895h-.987v-8.895h.987zM62 37.125v.817h-.939v-.86a1.544 1.544 0 00-.259-.946.954.954 0 00-.815-.343.893.893 0 00-.793.343 1.65 1.65 0 00-.237.946v4.684c-.019.335.072.667.259.946a.902.902 0 00.774.343.953.953 0 00.815-.343c.187-.28.278-.611.259-.946v-1.16h.944v1.117a2.502 2.502 0 01-.493 1.633 2.227 2.227 0 01-3.045 0 2.504 2.504 0 01-.493-1.633v-4.598a2.519 2.519 0 01.493-1.611 2.173 2.173 0 013.045 0c.342.465.514 1.034.486 1.611H62zm3.176-2.148a1.95 1.95 0 011.503.516c.346.438.514.99.472 1.547v.687c.016.417-.074.83-.259 1.203a1.345 1.345 0 01-.858.645 1.271 1.271 0 01.88.666c.166.37.248.774.237 1.18v1.59c.001.153.023.304.065.451.041.153.091.304.15.451l-1.03-.042a1.501 1.501 0 01-.13-.413 2.557 2.557 0 01-.042-.45v-1.59a1.359 1.359 0 00-.321-1.053 1.438 1.438 0 00-.964-.276h-.688v3.782h-.988v-8.895h1.973v.001zm-.26 4.21c.328.022.654-.07.923-.258a1.16 1.16 0 00.32-.946v-.858a1.543 1.543 0 00-.236-.924.918.918 0 00-.793-.322h-.945v3.309h.731zm6.737-.257v.902h-2.144v3.137h2.662v.902h-3.647v-8.895h3.647v.902h-2.662v3.051h2.147l-.003.001zm2.747 3.137l-.343 1.805h-.9l1.674-8.895h1.46l1.674 8.895h-.987l-.343-1.805H74.4zm.13-.817h1.974l-.987-5.156-.988 5.156zM54.274 0h.43v44h-.43V0z"/>
</svg>
